X:1265
T:Untitled Jig
S:Radio Scotland, 1991
Z:Nigel Gatherer
M:6/8
L:1/8
K:D
A2 d dcB|ABA FED|FFF FEF|FED EFG|A2 d dcB|
ABA F3|fdf gec|edc d3::A2 d dfa|agf efg|fdf ged|
cdc BcB|A2 d dfa|agf efg|fdf gec|edc d3:|
